Newaita-dark/apps/64/retroarch.svg

<svg height="64pt" viewBox="0 0 64 64" width="64pt" xmlns="http://www.w3.org/2000/svg" xmlns:xlink="http://www.w3.org/1999/xlink"><linearGradient id="a" gradientUnits="userSpaceOnUse" x1="31.75304" x2="31.75304" y1="56.067872" y2="58.71396000006"><stop offset="0" stop-opacity=".27451"/><stop offset="1" stop-opacity="0"/></linearGradient><linearGradient id="b"><stop offset="0" stop-opacity=".313726"/><stop offset=".222222" stop-opacity=".27451"/><stop offset="1" stop-opacity="0"/></linearGradient><radialGradient id="c" cx="450.908936" cy="189.579361" gradientTransform="matrix(.00000035 -.156265 -.281277 -.0000002 106.24586 127.190665)" gradientUnits="userSpaceOnUse" r="21.166656" xlink:href="#b"/><radialGradient id="d" cx="450.908936" cy="189.579361" gradientTransform="matrix(-.00000035 .156265 .281277 .0000002 -42.409041 -15.054958)" gradientUnits="userSpaceOnUse" r="21.166656" xlink:href="#b"/><radialGradient id="e" cx="450.908936" cy="189.579361" gradientTransform="matrix(-.00000035 -.156265 .281277 -.0000002 -42.409041 127.190665)" gradientUnits="userSpaceOnUse" r="21.166656" xlink:href="#b"/><radialGradient id="f" cx="450.908936" cy="189.579361" gradientTransform="matrix(.00000035 .156265 -.281277 .0000002 106.245857 -15.054959)" gradientUnits="userSpaceOnUse" r="21.166656" xlink:href="#b"/><linearGradient id="g"><stop offset="0" stop-color="#e0e0e0"/><stop offset="1" stop-color="#eee"/></linearGradient><linearGradient id="h" gradientUnits="userSpaceOnUse" x1="31.753048" x2="31.753048" xlink:href="#g" y1="56.067868" y2="5.79220799994"/><linearGradient id="i" gradientUnits="userSpaceOnUse" x1="31.753048" x2="31.753048" y1="42.83742999987" y2="20.345689"><stop offset="0" stop-color="#424242"/><stop offset="1" stop-color="#616161"/></linearGradient><linearGradient id="j" gradientUnits="userSpaceOnUse" x1="25.799353" x2="25.799353" xlink:href="#g" y1="32.253082" y2="27.622429125"/><linearGradient id="k" gradientUnits="userSpaceOnUse" x1="38.368261" x2="38.368261" xlink:href="#g" y1="32.253082" y2="27.622429125"/><path d="m10.253906 56.066406h43.328125v2.648438h-43.328125zm0 0" fill="url(#a)"/><path d="m53.582031 56.066406h5.292969v-2.644531h-5.292969zm0 0" fill="url(#c)"/><path d="m10.253906 56.066406h-5.292968v2.648438h5.292968zm0 0" fill="url(#d)"/><path d="m10.253906 56.066406h-5.292968v-2.644531h5.292968zm0 0" fill="url(#e)"/><path d="m53.582031 56.066406h5.292969v2.648438h-5.292969zm0 0" fill="url(#f)"/><path d="m7.277344 5.792969h48.953125c1.09375 0 1.984375.886719 1.984375 1.984375v46.304687c0 1.097657-.890625 1.984375-1.984375 1.984375h-48.953125c-1.097656 0-1.984375-.886718-1.984375-1.984375v-46.304687c0-1.097656.886719-1.984375 1.984375-1.984375zm0 0" fill="url(#h)"/><path d="m5.292969 53.421875v.660156c0 1.101563.882812 1.984375 1.984375 1.984375h48.953125c1.097656 0 1.984375-.882812 1.984375-1.984375v-.660156c0 1.097656-.886719 1.984375-1.984375 1.984375h-48.953125c-1.101563 0-1.984375-.886719-1.984375-1.984375zm0 0" fill-opacity=".235294"/><path d="m7.277344 5.792969c-1.101563 0-1.984375.882812-1.984375 1.984375v.660156c0-1.097656.882812-1.984375 1.984375-1.984375h48.953125c1.097656 0 1.984375.886719 1.984375 1.984375v-.660156c0-1.101563-.886719-1.984375-1.984375-1.984375zm0 0" fill="#fff" fill-opacity=".784314"/><path d="m7.277344 5.605469c-1.199219 0-2.171875.972656-2.171875 2.171875v46.304687c0 1.203125.972656 2.171875 2.171875 2.171875h48.953125c1.199219 0 2.171875-.96875 2.171875-2.171875v-46.304687c0-1.199219-.972656-2.171875-2.171875-2.171875zm0 .375h48.953125c.996093 0 1.796875.796875 1.796875 1.796875v46.304687c0 1-.800782 1.796875-1.796875 1.796875h-48.953125c-1 0-1.796875-.796875-1.796875-1.796875v-46.304687c0-1 .796875-1.796875 1.796875-1.796875zm0 0" fill="#212121"/><path d="m23.582031 20.5 3.5 4.671875h-7.003906l-.726563 3.5h-3.941406l1.167969-4.667969h-2.335937l-2.335938 9.339844h6.566406l-.726562 3.5h4.667968l-3.503906 4.671875h4.671875l3.5-4.671875h9.339844l3.503906 4.671875h4.667969l-3.5-4.671875h4.667969l-.726563-3.5h6.5625l-2.332031-9.339844h-2.335937l1.167968 4.667969h-3.945312l-.726563-3.5h-7.003906l3.503906-4.671875h-2.335937l-3.503906 4.671875h-4.667969l-3.5-4.671875zm0 0" fill="url(#i)"/><path d="m23.582031 20.5.597657.800781h1.738281l3.5 4.667969h4.667969l3.503906-4.667969h1.738281l.597656-.800781h-2.335937l-3.503906 4.671875h-4.667969l-3.5-4.671875zm-9.339843 3.503906-2.335938 9.339844h.199219l2.136719-8.542969h2.136718l.199219-.796875zm32.6875 0 .199218.796875h2.136719l2.132813 8.542969h.199218l-2.332031-9.339844zm-26.851563 1.167969-.726563 3.5h-3.742187l-.199219.800781h3.941406l.726563-3.503906h7.003906l-.597656-.796875zm16.941406 0-.597656.796875h7.003906l.726563 3.503906h3.945312l-.199218-.800781h-3.746094l-.726563-3.5zm-18.714843 8.96875-.558594 2.703125h.164062l.5625-2.703125zm26.730468 0 .5625 2.703125h.164063l-.5625-2.703125zm-23.21875 3.5-2.90625 3.875h.601563l2.902343-3.875zm19.277344 0 2.902344 3.875h.597656l-2.902344-3.875zm0 0" fill="#fff" fill-opacity=".313726"/><path d="m23.582031 21.492188 2.882813 3.84375h.617187l-2.878906-3.84375zm15.722657 0-2.882813 3.84375h.621094l2.882812-3.84375zm-22.933594 3.503906-.960938 3.84375h.207032l.960937-3.84375zm30.558594 0 .960937 3.84375h.207031l-.960937-3.84375zm-34.816407 8.511718-.207031.828126h6.394531l.171875-.828126zm32.921875 0 .171875.828126h6.390625l-.207031-.828126zm-27.117187 3.503907-.171875.824219h4.046875l.621093-.824219zm9.164062 0-3.5 4.667969h-4.050781l-.621094.828124h4.671875l3.5-4.671874h9.339844l3.503906 4.671874h4.667969l-.621094-.828124h-4.046875l-3.503906-4.667969zm14.011719 0 .617188.824219h4.050781l-.171875-.824219zm0 0" fill-opacity=".235294"/><path d="m188.638236-51.01566 27.997326 37.371431h-56.025899l-5.811945 27.997327h-31.52824l9.342858-37.340184h-18.685715l-18.685716 74.711615h52.526234l-5.811945 27.997326h37.340184l-28.028573 37.371432h37.371431l27.997326-37.371432h74.711616l28.028573 37.371432h37.340184l-27.997326-37.371432h37.340184l-5.811945-27.997326h52.494987l-18.654468-74.711615h-18.685716l9.342858 37.340184h-31.559486l-5.811945-27.997327h-56.0259l28.028573-37.371431h-18.685715l-28.028574 37.371431h-37.340184l-27.997326-37.371431zm0 0" fill="none" stroke="#212121" stroke-width="3" transform="matrix(.125012 0 0 .125012 0 26.877566)"/><path d="m23.152344 27.621094h4.632812v4.632812h-4.632812zm0 0" fill="url(#j)"/><path d="m23.152344 27.621094v.992187h4.632812v-.992187zm0 0" fill="#fff"/><path d="m23.152344 32.253906v.992188h4.632812v-.992188zm0 0" fill-opacity=".235294"/><path d="m201.076061 5.947651h37.058961v37.058961h-37.058961zm0 0" fill="none" stroke="#212121" stroke-linecap="round" stroke-linejoin="round" stroke-width="3" transform="matrix(.125012 0 0 .125012 -1.984564 26.877566)"/><path d="m35.722656 27.621094h4.628906v4.632812h-4.628906zm0 0" fill="url(#k)"/><path d="m35.722656 27.621094v.992187h4.628906v-.992187zm0 0" fill="#fff"/><path d="m35.722656 32.253906v.992188h4.628906v-.992188zm0 0" fill-opacity=".235294"/><path d="m201.087298 5.947651h37.027714v37.058961h-37.027714zm0 0" fill="none" stroke="#212121" stroke-linecap="round" stroke-linejoin="round" stroke-width="3" transform="matrix(.125012 0 0 .125012 10.584344 26.877566)"/></svg>

<?xml version="1.0" encoding="UTF-8"?>
<svg xmlns="http://www.w3.org/2000/svg" xmlns:xlink="http://www.w3.org/1999/xlink" width="64pt" height="64pt" viewBox="0 0 64 64" version="1.1">
<defs>
<linearGradient id="linear0" gradientUnits="userSpaceOnUse" x1="254" y1="233.5" x2="254" y2="254.666672" gradientTransform="matrix(0.125012,0,0,0.125012,-0.00000763012,26.87757)">
<stop offset="0" style="stop-color:rgb(0%,0%,0%);stop-opacity:0.27451;"/>
<stop offset="1" style="stop-color:rgb(0%,0%,0%);stop-opacity:0;"/>
</linearGradient>
<radialGradient id="radial0" gradientUnits="userSpaceOnUse" cx="450.908936" cy="189.579361" fx="450.908936" fy="189.579361" r="21.166656" gradientTransform="matrix(0.000000348341,-0.156265,-0.281277,-0.000000203077,106.24586,127.190665)">
<stop offset="0" style="stop-color:rgb(0%,0%,0%);stop-opacity:0.313726;"/>
<stop offset="0.222222" style="stop-color:rgb(0%,0%,0%);stop-opacity:0.27451;"/>
<stop offset="1" style="stop-color:rgb(0%,0%,0%);stop-opacity:0;"/>
</radialGradient>
<radialGradient id="radial1" gradientUnits="userSpaceOnUse" cx="450.908936" cy="189.579361" fx="450.908936" fy="189.579361" r="21.166656" gradientTransform="matrix(-0.000000348341,0.156265,0.281277,0.000000203077,-42.409041,-15.054958)">
<stop offset="0" style="stop-color:rgb(0%,0%,0%);stop-opacity:0.313726;"/>
<stop offset="0.222222" style="stop-color:rgb(0%,0%,0%);stop-opacity:0.27451;"/>
<stop offset="1" style="stop-color:rgb(0%,0%,0%);stop-opacity:0;"/>
</radialGradient>
<radialGradient id="radial2" gradientUnits="userSpaceOnUse" cx="450.908936" cy="189.579361" fx="450.908936" fy="189.579361" r="21.166656" gradientTransform="matrix(-0.000000348341,-0.156265,0.281277,-0.000000203077,-42.409041,127.190665)">
<stop offset="0" style="stop-color:rgb(0%,0%,0%);stop-opacity:0.313726;"/>
<stop offset="0.222222" style="stop-color:rgb(0%,0%,0%);stop-opacity:0.27451;"/>
<stop offset="1" style="stop-color:rgb(0%,0%,0%);stop-opacity:0;"/>
</radialGradient>
<radialGradient id="radial3" gradientUnits="userSpaceOnUse" cx="450.908936" cy="189.579361" fx="450.908936" fy="189.579361" r="21.166656" gradientTransform="matrix(0.000000348341,0.156265,-0.281277,0.000000203077,106.245857,-15.054959)">
<stop offset="0" style="stop-color:rgb(0%,0%,0%);stop-opacity:0.313726;"/>
<stop offset="0.222222" style="stop-color:rgb(0%,0%,0%);stop-opacity:0.27451;"/>
<stop offset="1" style="stop-color:rgb(0%,0%,0%);stop-opacity:0;"/>
</radialGradient>
<linearGradient id="linear1" gradientUnits="userSpaceOnUse" x1="254" y1="233.5" x2="254" y2="-168.666672" gradientTransform="matrix(0.125012,0,0,0.125012,0,26.877566)">
<stop offset="0" style="stop-color:rgb(87.843138%,87.843138%,87.843138%);stop-opacity:1;"/>
<stop offset="1" style="stop-color:rgb(93.333334%,93.333334%,93.333334%);stop-opacity:1;"/>
</linearGradient>
<linearGradient id="linear2" gradientUnits="userSpaceOnUse" x1="254" y1="127.666656" x2="254" y2="-52.25" gradientTransform="matrix(0.125012,0,0,0.125012,0,26.877566)">
<stop offset="0" style="stop-color:rgb(25.882354%,25.882354%,25.882354%);stop-opacity:1;"/>
<stop offset="1" style="stop-color:rgb(38.039216%,38.039216%,38.039216%);stop-opacity:1;"/>
</linearGradient>
<linearGradient id="linear3" gradientUnits="userSpaceOnUse" x1="222.25" y1="43" x2="222.25" y2="5.958333" gradientTransform="matrix(0.125012,0,0,0.125012,-1.984564,26.877566)">
<stop offset="0" style="stop-color:rgb(87.843138%,87.843138%,87.843138%);stop-opacity:1;"/>
<stop offset="1" style="stop-color:rgb(93.333334%,93.333334%,93.333334%);stop-opacity:1;"/>
</linearGradient>
<linearGradient id="linear4" gradientUnits="userSpaceOnUse" x1="222.25" y1="43" x2="222.25" y2="5.958333" gradientTransform="matrix(0.125012,0,0,0.125012,10.584344,26.877566)">
<stop offset="0" style="stop-color:rgb(87.843138%,87.843138%,87.843138%);stop-opacity:1;"/>
<stop offset="1" style="stop-color:rgb(93.333334%,93.333334%,93.333334%);stop-opacity:1;"/>
</linearGradient>
</defs>
<g id="surface1">
<path style=" stroke:none;fill-rule:nonzero;fill:url(#linear0);" d="M 10.253906 56.066406 L 53.582031 56.066406 L 53.582031 58.714844 L 10.253906 58.714844 Z M 10.253906 56.066406 "/>
<path style=" stroke:none;fill-rule:nonzero;fill:url(#radial0);" d="M 53.582031 56.066406 L 58.875 56.066406 L 58.875 53.421875 L 53.582031 53.421875 Z M 53.582031 56.066406 "/>
<path style=" stroke:none;fill-rule:nonzero;fill:url(#radial1);" d="M 10.253906 56.066406 L 4.960938 56.066406 L 4.960938 58.714844 L 10.253906 58.714844 Z M 10.253906 56.066406 "/>
<path style=" stroke:none;fill-rule:nonzero;fill:url(#radial2);" d="M 10.253906 56.066406 L 4.960938 56.066406 L 4.960938 53.421875 L 10.253906 53.421875 Z M 10.253906 56.066406 "/>
<path style=" stroke:none;fill-rule:nonzero;fill:url(#radial3);" d="M 53.582031 56.066406 L 58.875 56.066406 L 58.875 58.714844 L 53.582031 58.714844 Z M 53.582031 56.066406 "/>
<path style=" stroke:none;fill-rule:nonzero;fill:url(#linear1);" d="M 7.277344 5.792969 L 56.230469 5.792969 C 57.324219 5.792969 58.214844 6.679688 58.214844 7.777344 L 58.214844 54.082031 C 58.214844 55.179688 57.324219 56.066406 56.230469 56.066406 L 7.277344 56.066406 C 6.179688 56.066406 5.292969 55.179688 5.292969 54.082031 L 5.292969 7.777344 C 5.292969 6.679688 6.179688 5.792969 7.277344 5.792969 Z M 7.277344 5.792969 "/>
<path style=" stroke:none;fill-rule:nonzero;fill:rgb(0%,0%,0%);fill-opacity:0.235294;" d="M 5.292969 53.421875 L 5.292969 54.082031 C 5.292969 55.183594 6.175781 56.066406 7.277344 56.066406 L 56.230469 56.066406 C 57.328125 56.066406 58.214844 55.183594 58.214844 54.082031 L 58.214844 53.421875 C 58.214844 54.519531 57.328125 55.40625 56.230469 55.40625 L 7.277344 55.40625 C 6.175781 55.40625 5.292969 54.519531 5.292969 53.421875 Z M 5.292969 53.421875 "/>
<path style=" stroke:none;fill-rule:nonzero;fill:rgb(100%,100%,100%);fill-opacity:0.784314;" d="M 7.277344 5.792969 C 6.175781 5.792969 5.292969 6.675781 5.292969 7.777344 L 5.292969 8.4375 C 5.292969 7.339844 6.175781 6.453125 7.277344 6.453125 L 56.230469 6.453125 C 57.328125 6.453125 58.214844 7.339844 58.214844 8.4375 L 58.214844 7.777344 C 58.214844 6.675781 57.328125 5.792969 56.230469 5.792969 Z M 7.277344 5.792969 "/>
<path style=" stroke:none;fill-rule:nonzero;fill:rgb(12.941177%,12.941177%,12.941177%);fill-opacity:1;" d="M 7.277344 5.605469 C 6.078125 5.605469 5.105469 6.578125 5.105469 7.777344 L 5.105469 54.082031 C 5.105469 55.285156 6.078125 56.253906 7.277344 56.253906 L 56.230469 56.253906 C 57.429688 56.253906 58.402344 55.285156 58.402344 54.082031 L 58.402344 7.777344 C 58.402344 6.578125 57.429688 5.605469 56.230469 5.605469 Z M 7.277344 5.980469 L 56.230469 5.980469 C 57.226562 5.980469 58.027344 6.777344 58.027344 7.777344 L 58.027344 54.082031 C 58.027344 55.082031 57.226562 55.878906 56.230469 55.878906 L 7.277344 55.878906 C 6.277344 55.878906 5.480469 55.082031 5.480469 54.082031 L 5.480469 7.777344 C 5.480469 6.777344 6.277344 5.980469 7.277344 5.980469 Z M 7.277344 5.980469 "/>
<path style=" stroke:none;fill-rule:nonzero;fill:url(#linear2);" d="M 23.582031 20.5 L 27.082031 25.171875 L 20.078125 25.171875 L 19.351562 28.671875 L 15.410156 28.671875 L 16.578125 24.003906 L 14.242188 24.003906 L 11.90625 33.34375 L 18.472656 33.34375 L 17.746094 36.84375 L 22.414062 36.84375 L 18.910156 41.515625 L 23.582031 41.515625 L 27.082031 36.84375 L 36.421875 36.84375 L 39.925781 41.515625 L 44.59375 41.515625 L 41.09375 36.84375 L 45.761719 36.84375 L 45.035156 33.34375 L 51.597656 33.34375 L 49.265625 24.003906 L 46.929688 24.003906 L 48.097656 28.671875 L 44.152344 28.671875 L 43.425781 25.171875 L 36.421875 25.171875 L 39.925781 20.5 L 37.589844 20.5 L 34.085938 25.171875 L 29.417969 25.171875 L 25.917969 20.5 Z M 23.582031 20.5 "/>
<path style=" stroke:none;fill-rule:nonzero;fill:rgb(100%,100%,100%);fill-opacity:0.313726;" d="M 23.582031 20.5 L 24.179688 21.300781 L 25.917969 21.300781 L 29.417969 25.96875 L 34.085938 25.96875 L 37.589844 21.300781 L 39.328125 21.300781 L 39.925781 20.5 L 37.589844 20.5 L 34.085938 25.171875 L 29.417969 25.171875 L 25.917969 20.5 Z M 14.242188 24.003906 L 11.90625 33.34375 L 12.105469 33.34375 L 14.242188 24.800781 L 16.378906 24.800781 L 16.578125 24.003906 Z M 46.929688 24.003906 L 47.128906 24.800781 L 49.265625 24.800781 L 51.398438 33.34375 L 51.597656 33.34375 L 49.265625 24.003906 Z M 20.078125 25.171875 L 19.351562 28.671875 L 15.609375 28.671875 L 15.410156 29.472656 L 19.351562 29.472656 L 20.078125 25.96875 L 27.082031 25.96875 L 26.484375 25.171875 Z M 37.019531 25.171875 L 36.421875 25.96875 L 43.425781 25.96875 L 44.152344 29.472656 L 48.097656 29.472656 L 47.898438 28.671875 L 44.152344 28.671875 L 43.425781 25.171875 Z M 18.304688 34.140625 L 17.746094 36.84375 L 17.910156 36.84375 L 18.472656 34.140625 Z M 45.035156 34.140625 L 45.597656 36.84375 L 45.761719 36.84375 L 45.199219 34.140625 Z M 21.816406 37.640625 L 18.910156 41.515625 L 19.511719 41.515625 L 22.414062 37.640625 Z M 41.09375 37.640625 L 43.996094 41.515625 L 44.59375 41.515625 L 41.691406 37.640625 Z M 41.09375 37.640625 "/>
<path style=" stroke:none;fill-rule:nonzero;fill:rgb(0%,0%,0%);fill-opacity:0.235294;" d="M 23.582031 21.492188 L 26.464844 25.335938 L 27.082031 25.335938 L 24.203125 21.492188 Z M 39.304688 21.492188 L 36.421875 25.335938 L 37.042969 25.335938 L 39.925781 21.492188 Z M 16.371094 24.996094 L 15.410156 28.839844 L 15.617188 28.839844 L 16.578125 24.996094 Z M 46.929688 24.996094 L 47.890625 28.839844 L 48.097656 28.839844 L 47.136719 24.996094 Z M 12.113281 33.507812 L 11.90625 34.335938 L 18.300781 34.335938 L 18.472656 33.507812 Z M 45.035156 33.507812 L 45.207031 34.335938 L 51.597656 34.335938 L 51.390625 33.507812 Z M 17.917969 37.011719 L 17.746094 37.835938 L 21.792969 37.835938 L 22.414062 37.011719 Z M 27.082031 37.011719 L 23.582031 41.679688 L 19.53125 41.679688 L 18.910156 42.507812 L 23.582031 42.507812 L 27.082031 37.835938 L 36.421875 37.835938 L 39.925781 42.507812 L 44.59375 42.507812 L 43.972656 41.679688 L 39.925781 41.679688 L 36.421875 37.011719 Z M 41.09375 37.011719 L 41.710938 37.835938 L 45.761719 37.835938 L 45.589844 37.011719 Z M 41.09375 37.011719 "/>
<path style="fill:none;stroke-width:3;stroke-linecap:butt;stroke-linejoin:miter;stroke:rgb(12.941177%,12.941177%,12.941177%);stroke-opacity:1;stroke-miterlimit:4;" d="M 188.638236 -51.01566 L 216.635562 -13.644229 L 160.609663 -13.644229 L 154.797718 14.353098 L 123.269478 14.353098 L 132.612336 -22.987086 L 113.926621 -22.987086 L 95.240905 51.724529 L 147.767139 51.724529 L 141.955194 79.721855 L 179.295378 79.721855 L 151.266805 117.093287 L 188.638236 117.093287 L 216.635562 79.721855 L 291.347178 79.721855 L 319.375751 117.093287 L 356.715935 117.093287 L 328.718609 79.721855 L 366.058793 79.721855 L 360.246848 51.724529 L 412.741835 51.724529 L 394.087367 -22.987086 L 375.401651 -22.987086 L 384.744509 14.353098 L 353.185023 14.353098 L 347.373078 -13.644229 L 291.347178 -13.644229 L 319.375751 -51.01566 L 300.690036 -51.01566 L 272.661462 -13.644229 L 235.321278 -13.644229 L 207.323952 -51.01566 Z M 188.638236 -51.01566 " transform="matrix(0.125012,0,0,0.125012,0,26.877566)"/>
<path style=" stroke:none;fill-rule:nonzero;fill:url(#linear3);" d="M 23.152344 27.621094 L 27.785156 27.621094 L 27.785156 32.253906 L 23.152344 32.253906 Z M 23.152344 27.621094 "/>
<path style=" stroke:none;fill-rule:nonzero;fill:rgb(100%,100%,100%);fill-opacity:1;" d="M 23.152344 27.621094 L 23.152344 28.613281 L 27.785156 28.613281 L 27.785156 27.621094 Z M 23.152344 27.621094 "/>
<path style=" stroke:none;fill-rule:nonzero;fill:rgb(0%,0%,0%);fill-opacity:0.235294;" d="M 23.152344 32.253906 L 23.152344 33.246094 L 27.785156 33.246094 L 27.785156 32.253906 Z M 23.152344 32.253906 "/>
<path style="fill:none;stroke-width:3;stroke-linecap:round;stroke-linejoin:round;stroke:rgb(12.941177%,12.941177%,12.941177%);stroke-opacity:1;stroke-miterlimit:4;" d="M 201.076061 5.947651 L 238.135022 5.947651 L 238.135022 43.006612 L 201.076061 43.006612 Z M 201.076061 5.947651 " transform="matrix(0.125012,0,0,0.125012,-1.984564,26.877566)"/>
<path style=" stroke:none;fill-rule:nonzero;fill:url(#linear4);" d="M 35.722656 27.621094 L 40.351562 27.621094 L 40.351562 32.253906 L 35.722656 32.253906 Z M 35.722656 27.621094 "/>
<path style=" stroke:none;fill-rule:nonzero;fill:rgb(100%,100%,100%);fill-opacity:1;" d="M 35.722656 27.621094 L 35.722656 28.613281 L 40.351562 28.613281 L 40.351562 27.621094 Z M 35.722656 27.621094 "/>
<path style=" stroke:none;fill-rule:nonzero;fill:rgb(0%,0%,0%);fill-opacity:0.235294;" d="M 35.722656 32.253906 L 35.722656 33.246094 L 40.351562 33.246094 L 40.351562 32.253906 Z M 35.722656 32.253906 "/>
<path style="fill:none;stroke-width:3;stroke-linecap:round;stroke-linejoin:round;stroke:rgb(12.941177%,12.941177%,12.941177%);stroke-opacity:1;stroke-miterlimit:4;" d="M 201.087298 5.947651 L 238.115012 5.947651 L 238.115012 43.006612 L 201.087298 43.006612 Z M 201.087298 5.947651 " transform="matrix(0.125012,0,0,0.125012,10.584344,26.877566)"/>
</g>
</svg>
